X:0739
M:C
L:1/8
Q:1/4=120
K:D
f/g/|a>b     ag/f/ d'afd|gb/g/    fa/f/   Te>def|ab ag/f/ d'afd|g>ef>c d2df|
     ab      ag/f/ d'afd|g/b/a/g/ f/a/g/f/ e>def|A>df>e   d>BAF|A<AB>c d2d|]

